X:1
T:Title
%%score { ( 1 3 ) | ( 2 4 ) }
L:1/8
M:6/4
K:Ab
V:1 treble nm="Grand Piano"
V:3 treble 
V:2 bass 
V:4 bass 
V:1
 z12 | E2 F2 G2 [CA]2 [DB]2 [=D_c]2 | [Ec]4 [=D_c]2 =c4 _c2 | A2 G2 A2 B2 A2 F2 | G4 _G2 =G4 E2 | %5
 E2 F2 G2 z2 [DB]2 [=D_c]2 | z6 =c6[K:bass] | .B6 z6 | E12 | %9
 [Ec]2 [Fc]2 [CGc]2 [EAc]2 [CE]2 [A,E]2 | d12 | [Gd]2 [Bd]2 d2 d2 G2 G2 | e12 | %13
 e2 f2 e2 [E_Gc]2 [EGB]2 [EGA]2 | [FB]2 [FA]2 [DF]2 [Fd]4 F2 | %15
 E2 A2 d2 c2 B4[Q:1/4=118][Q:1/4=116][Q:1/4=114][Q:1/4=113][Q:1/4=111][Q:1/4=109][Q:1/4=107][Q:1/4=105][Q:1/4=103][Q:1/4=101][Q:1/4=99][Q:1/4=98][Q:1/4=96][Q:1/4=94][Q:1/4=92] | %16
[M:5/4] [CA]2- [CA]2- [CA]6 |] %17
V:2
 z6 z4 E2 | z2 C,2 E,2 z2 E,2 A,2 | z2 E,2 A,2 z2 E,2 A,2 | z2 C,2 F,2 z2 F,2 B,2 | B,4 =A,2 B,6 | %5
 z2 C,2 E,2 A2 E,2 A,2 | z2 E,2 E,2 E6 | z2 E,2 [B,E]2 [B,,A,B,]6 | [E,G,B,]12 | %9
 [A,,A,]2 [C,A,]2 E,2 E,2 A,,2 C,2 | [E,B,]2 [E,=A,]4 [E,B,]6 | %11
 [E,B,]2[K:treble] [G,E]2 [A,EA]2 [B,EG]2[K:bass] [E,DE]2 [B,D]2 | [A,CA]2 [E,B,]4 [A,C]6 | %13
 [A,CA]2 [A,DA]2 [A,CA]2[K:bass] A,,2 B,,2 C,2 | [D,D]2 [D,D]2 [D,A,]2 [D,A,]4 [D,A,D]2 | %15
 [E,A,C]2 [E,CE]2 [E,A,F]2 [E,A,E]2 [E,G,D]4 |[M:5/4] [A,,A,]2- [A,,A,]2- [A,,A,]6 |] %17
V:3
 x12 | C6 z6 | z6 E6 | C6 =D6 | x12 | .C12 | [Ec]4 [=D_c]2 z2[K:bass] E,2 A,2 | %7
 [EG]2- [EGe]2 G2 B2 =D4 | x12 | x12 | G2 _G4 =G6 | x12 | z2 G4 A6 | x12 | x12 | x12 | %16
[M:5/4] x10 |] %17
V:4
 x12 | A,,6 A,,6 | A,,6 A,,6 | F,,6 B,,6 | [E,D]12 | A,,12 | A,,12 | B,,6 z6 | x12 | x12 | x12 | %11
 x2[K:treble] x6[K:bass] x4 | x12 | x6[K:bass] x6 | x12 | x12 |[M:5/4] x10 |] %17

